static/assets/img/icons/theme/navigation/left-3.svg

<svg height="24" viewBox="0 0 24 24" width="24" xmlns="http://www.w3.org/2000/svg"><g fill="none" fill-rule="evenodd"><path d="m0 0h24v24h-24z" opacity="0"/><g fill="#000" fill-rule="nonzero"><path d="m4.7071045 12.7071045c-.3905243.3905243-1.02368928.3905243-1.41421357 0s-.39052429-1.0236893 0-1.4142136l6-5.99999997c.37857894-.37857893.98816537-.39182456 1.38283137-.03004736l6 5.50000003c.407119.3731924.434622 1.0057598.0614296 1.4128787-.3731925.407119-1.0057598.434622-1.4128788.0614296l-5.2941996-4.85301637z" transform="matrix(0 -1 1 0 1.000004 18.999998)"/><path d="m20 8c.5522847 0 1 .44771525 1 1s-.4477153 1-1 1h-6.5c-.5522847 0-1 .4477153-1 1v10.0415946c0 .5522847-.4477153 1-1 1s-1-.4477153-1-1v-10.0415946c0-1.65685425 1.3431458-3 3-3z" opacity=".3" transform="matrix(-1 0 0 1 31.5 0)"/></g></g></svg>

<svg width="24px" height="24px" viewBox="0 0 24 24" version="1.1" xmlns="http://www.w3.org/2000/svg" xmlns:xlink="http://www.w3.org/1999/xlink">
    <title>Icon For Left 3</title>
    <g stroke="none" stroke-width="1" fill="none" fill-rule="evenodd">
        <polygon points="0 0 24 0 24 24 0 24" opacity="0"></polygon>
        <path d="M4.7071045,12.7071045 C4.3165802,13.0976288 3.68341522,13.0976288 3.29289093,12.7071045 C2.90236664,12.3165802 2.90236664,11.6834152 3.29289093,11.2928909 L9.29289093,5.29289093 C9.67146987,4.914312 10.2810563,4.90106637 10.6757223,5.26284357 L16.6757223,10.7628436 C17.0828413,11.136036 17.1103443,11.7686034 16.7371519,12.1757223 C16.3639594,12.5828413 15.7313921,12.6103443 15.3242731,12.2371519 L10.0300735,7.38413553 L4.7071045,12.7071045 Z" fill="#000000" fill-rule="nonzero" transform="translate(10.000001, 8.999997) scale(-1, -1) rotate(90.000000) translate(-10.000001, -8.999997) "></path>
        <path d="M20,8 C20.5522847,8 21,8.44771525 21,9 C21,9.55228475 20.5522847,10 20,10 L13.5,10 C12.9477153,10 12.5,10.4477153 12.5,11 L12.5,21.0415946 C12.5,21.5938793 12.0522847,22.0415946 11.5,22.0415946 C10.9477153,22.0415946 10.5,21.5938793 10.5,21.0415946 L10.5,11 C10.5,9.34314575 11.8431458,8 13.5,8 L20,8 Z" fill="#000000" fill-rule="nonzero" opacity="0.3" transform="translate(15.750000, 15.020797) scale(-1, 1) translate(-15.750000, -15.020797) "></path>
    </g>
</svg>
